public/assets/routes_avatar/salesInvoiceMatching.svg

<?xml version="1.0" encoding="UTF-8"?>
<svg width="60px" height="60px" viewBox="0 0 60 60" version="1.1" xmlns="http://www.w3.org/2000/svg" xmlns:xlink="http://www.w3.org/1999/xlink">
    <!-- Generator: Sketch 49.3 (51167) - http://www.bohemiancoding.com/sketch -->
    <title>销项管理-销项发票匹配</title>
    <desc>Created with Sketch.</desc>
    <defs>
        <path d="M19.1908033,14.1866117 L3.80728699,14.1866117 C3.27588678,14.1866117 2.84580837,14.5639487 2.84580837,15.030321 C2.84580837,15.4966933 3.27585139,15.8740302 3.80728699,15.8740302 L19.1907679,15.8740302 C19.7222035,15.8740302 20.1522466,15.4966933 20.1522466,15.030321 C20.1522466,14.5639487 19.7222389,14.1866117 19.1908033,14.1866117 Z M11.4990451,19.2488052 L3.80728699,19.2488052 C3.27588678,19.2488052 2.84580837,19.6261422 2.84580837,20.0925145 C2.84580837,20.5588868 3.27585139,20.9378686 3.80728699,20.9378686 L11.4990451,20.9378686 C12.0323551,20.9378686 12.4623628,20.5588557 12.4623628,20.0925145 C12.4623628,19.6261733 12.0323905,19.2488052 11.4990451,19.2488052 Z M21.9390909,0 L3.05903474,0 C1.37270729,0 0,1.08924675 0,2.42564475 L0,24.5727105 C0,25.9107843 1.37270726,27 3.05903474,27 L15.38532,27 L17.3082772,27 L18.0105629,27 L25,21.3923917 L25,2.4256758 C25,1.08924678 23.6272927,0 21.9390909,0 Z M17.3082772,25.2763964 L17.3082772,22.7815468 C17.3082772,22.3168193 17.7382849,21.9378375 18.2678814,21.9378375 L21.4696155,21.9378375 L17.3082772,25.2763964 Z M23.0770781,20.2488052 L18.2678814,20.2488052 C16.677288,20.2488052 15.38532,21.3841678 15.38532,22.7815468 L15.38532,25.3126436 L3.05903474,25.3126435 C2.4430759,25.3126435 1.92292186,24.9731985 1.92292186,24.5727415 L1.9229219,2.4256758 C1.9229219,2.02524984 2.44307593,1.68744959 3.05903477,1.68744959 L21.9390909,1.68744959 C22.5550144,1.68744959 23.0770782,2.02524984 23.0770782,2.4256758 L23.0770781,20.2488052 Z" id="path-1"></path>
        <path d="M23.0000431,16 C20.7909148,16 19,17.7908991 19,19.9999569 C19,20.9180045 19.3125657,21.7612136 19.8326365,22.4362868 L20.1331885,22.1233687 C19.7457374,21.6011599 19.4953387,20.9714001 19.4403925,20.285629 L21.1669788,20.285629 C21.2974918,21.1285013 21.9949085,21.777284 22.8570308,21.8439854 L22.8570308,23.5661077 C22.1998606,23.539825 21.5889906,23.3364784 21.0696872,23.0018512 L20.7984331,23.3379742 C21.4301273,23.7554358 22.1862023,23.9999373 23.0000431,23.9999373 C25.2091557,23.9999373 27,22.2090774 27,19.9999491 C27,17.7908991 25.2091479,16 23.0000431,16 Z M22.8570308,21.4158728 C22.2312652,21.3530402 21.723161,20.8916748 21.6001192,20.285629 L22.8570308,20.285629 L22.8570308,21.4158728 Z M22.8570308,19.8570622 L21.5857326,19.8570622 C21.6535853,19.1837981 22.1845734,18.6529666 22.8570308,18.584926 L22.8570308,19.8570622 Z M22.8570308,18.1496789 C21.9457811,18.2192545 21.2195521,18.9456793 21.1499765,19.8570622 L19.4358032,19.8570622 C19.5094826,17.9992188 20.9993206,16.5094121 22.8570308,16.4356152 L22.8570308,18.1496789 Z M23.2855977,16.4426401 C25.0764263,16.5848536 26.4923814,18.0468817 26.5641733,19.8570622 L24.8497964,19.8570622 C24.7838938,18.9939296 24.1287284,18.2973979 23.2855977,18.1667282 L23.2855977,16.4426401 Z M23.2855977,18.6015446 C23.8896307,18.7252677 24.3510353,19.2318056 24.4140402,19.8570622 L23.2855977,19.8570622 L23.2855977,18.6015446 Z M23.2855977,20.285629 L24.3996536,20.285629 C24.2860803,20.8450378 23.8448107,21.2833705 23.2855977,21.397312 L23.2855977,20.285629 Z M23.2855977,23.5576496 L23.2855977,21.8309458 C24.08123,21.7073246 24.7095409,21.0817155 24.8327941,20.2856368 L26.5569761,20.2856368 C26.4185297,22.0296953 25.0293038,23.419258 23.2855977,23.5576496 Z" id="path-2"></path>
    </defs>
    <g id="icon" stroke="none" stroke-width="1" fill="none" fill-rule="evenodd">
        <g id="销项管理-销项发票匹配">
            <circle id="Oval-Copy" fill="#05DCAC" transform="translate(30.000000, 30.000000) scale(-1, 1) translate(-30.000000, -30.000000) " cx="30" cy="30" r="30"></circle>
            <circle id="Oval-10" fill="#05DCAC" cx="39.5" cy="35.5" r="7.5"></circle>
            <g id="Group-38" transform="translate(16.000000, 17.000000)">
                <g id="Group-32">
                    <g id="Shape" fill-rule="nonzero" transform="translate(12.500000, 13.500000) scale(-1, 1) rotate(-180.000000) translate(-12.500000, -13.500000) ">
                        <use fill="#FFFFFF" fill-rule="evenodd" xlink:href="#path-1"></use>
                        <path stroke="#05DCAC" stroke-width="0.2" d="M19.1908033,14.2866117 L3.80728699,14.2866117 C3.32839396,14.2866117 2.94580837,14.6223182 2.94580837,15.030321 C2.94580837,15.4383351 3.32837128,15.7740302 3.80728699,15.7740302 L19.1907679,15.7740302 C19.6696836,15.7740302 20.0522466,15.4383351 20.0522466,15.030321 C20.0522466,14.6222996 19.6697113,14.2866117 19.1908033,14.2866117 Z M11.4990451,19.3488052 L3.80728699,19.3488052 C3.32839396,19.3488052 2.94580837,19.6845117 2.94580837,20.0925145 C2.94580837,20.5009105 3.32877881,20.8378686 3.80728699,20.8378686 L11.4990451,20.8378686 C11.9791425,20.8378686 12.3623628,20.5011186 12.3623628,20.0925145 C12.3623628,19.6842816 11.9795731,19.3488052 11.4990451,19.3488052 Z M21.9390909,0.1 L3.05903474,0.1 C1.42384388,0.1 0.1,1.14996355 0.1,2.42564475 L0.1,24.5727105 C0.1,25.8498144 1.42351625,26.9 3.05903474,26.9 L17.3082772,26.9 L17.9479842,26.9220006 L24.9,21.3923917 L24.9,2.4256758 C24.9,1.14974934 23.5758781,0.1 21.9390909,0.1 Z M17.2082772,25.2763964 L17.2082772,22.7815468 C17.2082772,22.258227 17.6860579,21.8378375 18.2678814,21.8378375 L21.4696155,21.8378375 L21.5321934,22.0158376 L17.3708551,25.3543964 L17.2082772,25.2763964 Z M23.0770781,20.3488052 L18.2678814,20.3488052 C16.7299181,20.3488052 15.48532,21.4424173 15.48532,22.7815468 L15.48532,25.3126436 L15.38532,25.4126436 L3.05903474,25.4126435 C2.39492033,25.4126435 1.82292186,25.0398867 1.82292186,24.5727415 L1.8229219,2.4256758 C1.8229219,1.95877453 2.39448146,1.58744959 3.05903477,1.58744959 L21.9390909,1.58744959 C22.6039528,1.58744959 23.1770782,1.95894302 23.1770782,2.4256758 L23.1770781,20.2488052 L23.0770781,20.3488052 Z"></path>
                    </g>
                    <path d="M6.77160494,17.0064586 L7.40740741,17.0064586 L7.40740741,18.7244349 L8.54320988,18.7244349 L8.54320988,22.1410118 C8.54320988,22.6576964 8.32716049,22.9224973 7.90123457,22.9224973 L7.31481481,22.9224973 L7.14814815,22.2831001 L7.69753086,22.3153929 C7.83333333,22.3153929 7.90123457,22.2055974 7.90123457,21.992465 L7.90123457,21.5726588 L6.27160494,21.5726588 L6.27160494,22.9354144 L5.62962963,22.9354144 L5.62962963,18.7244349 L6.77160494,18.7244349 L6.77160494,17.0064586 Z M6.27160494,20.4682454 L6.27160494,21.0043057 L7.90123457,21.0043057 L7.90123457,20.4682454 L6.27160494,20.4682454 Z M7.90123457,19.8998924 L7.90123457,19.3638321 L6.27160494,19.3638321 L6.27160494,19.8998924 L7.90123457,19.8998924 Z M6.00617284,17.2518837 C6.19135802,17.5683531 6.37037037,17.9171152 6.54320988,18.3046286 L6.02469136,18.5758881 C5.85185185,18.1883746 5.66666667,17.8331539 5.4691358,17.5231432 L6.00617284,17.2518837 Z M8.17283951,17.1808396 L8.7037037,17.452099 C8.55555556,17.8396125 8.37037037,18.2142088 8.13580247,18.5758881 L7.61728395,18.2917115 C7.85185185,17.9171152 8.03703704,17.5489774 8.17283951,17.1808396 Z M3.80246914,17 L4.41975309,17.1356297 C4.37654321,17.3164693 4.33333333,17.4843918 4.28395062,17.6458558 L5.30864198,17.6458558 L5.30864198,18.285253 L4.07407407,18.285253 C3.98148148,18.5242196 3.88271605,18.7502691 3.78395062,18.9569429 L5.2037037,18.9569429 L5.2037037,19.5575888 L4.63580247,19.5575888 L4.63580247,20.1646932 L5.41358025,20.1646932 L5.41358025,20.7847147 L4.63580247,20.7847147 L4.63580247,22.0441335 C4.88888889,21.9407966 5.14197531,21.818084 5.38888889,21.6630786 L5.5,22.2508073 C5.07407407,22.4833154 4.58641975,22.6770721 4.03703704,22.8320775 L3.77160494,22.2508073 C3.92592593,22.1926803 4.00617284,22.1022605 4.00617284,21.9860065 L4.00617284,20.7847147 L3.22839506,20.7847147 L3.22839506,20.1646932 L4.00617284,20.1646932 L4.00617284,19.5575888 L3.70987654,19.5575888 L3.70987654,19.1054898 C3.64814815,19.2217438 3.58641975,19.3315393 3.52469136,19.4348762 L3,19.0861141 C3.38271605,18.4337998 3.64814815,17.7362756 3.80246914,17 Z M9.97530864,18.2012917 L9.31481481,18.2012917 L9.31481481,17.5425188 L11.2777778,17.5425188 L11.2777778,18.2012917 L10.6296296,18.2012917 L10.6296296,20.8428418 C10.8641975,20.7588805 11.0802469,20.6749193 11.2901235,20.590958 L11.2901235,21.262648 C10.7469136,21.4951561 10.1296296,21.714747 9.42592593,21.9149623 L9.2345679,21.2497309 C9.49382716,21.1851453 9.74074074,21.1141012 9.97530864,21.0495156 L9.97530864,18.2012917 Z M11.4506173,17.1872982 L14.9320988,17.1872982 L14.9320988,17.846071 L13.5061728,17.846071 C13.4814815,18.0139935 13.4506173,18.181916 13.4135802,18.3369214 L14.7037037,18.3369214 L14.7037037,21.4951561 L14.0740741,21.4951561 L14.0740741,18.9569429 L12.2901235,18.9569429 L12.2901235,21.4951561 L11.6666667,21.4951561 L11.6666667,18.3369214 L12.7777778,18.3369214 C12.8148148,18.1754575 12.845679,18.0139935 12.8703704,17.846071 L11.4506173,17.846071 L11.4506173,17.1872982 Z M13.7839506,21.4370291 C14.2654321,21.7987083 14.6666667,22.1603875 15,22.5156082 L14.537037,23 C14.2592593,22.6512379 13.8641975,22.270183 13.3518519,21.8697524 L13.7839506,21.4370291 Z M12.845679,19.247578 L13.4876543,19.247578 L13.4876543,20.3842842 C13.4506173,21.088267 13.2654321,21.65662 12.9320988,22.0828848 C12.6049383,22.4703983 12.0740741,22.7739505 11.3333333,22.9870829 L10.9814815,22.4122713 C11.6975309,22.2055974 12.1851852,21.9537137 12.4382716,21.65662 C12.6790123,21.3336921 12.8148148,20.9074273 12.845679,20.3842842 L12.845679,19.247578 Z" id="销项" fill="#FFFFFF"></path>
                </g>
                <circle id="Oval-11" stroke="#FFFFFF" stroke-width="1.5" fill="#05DCAC" cx="23" cy="20" r="6"></circle>
                <g id="Shape" fill-rule="nonzero">
                    <use fill="#FFFFFF" fill-rule="evenodd" xlink:href="#path-2"></use>
                    <path stroke="#FFFFFF" stroke-width="0.2" d="M22.7570308,23.4604856 L22.7570308,21.9343735 C21.9221934,21.8303188 21.2473788,21.2049793 21.083191,20.385629 L19.550431,20.385629 C19.618753,20.9964133 19.848548,21.5719018 20.2134979,22.0637834 L20.2053099,22.19264 L19.9047579,22.505558 L19.7534186,22.4973156 C19.2034637,21.7834517 18.9,20.9144165 18.9,19.9999569 C18.9,17.7356624 20.7356946,15.9 23.0000431,15.9 C25.264359,15.9 27.1,17.7356534 27.1,19.9999491 C27.1,22.2643062 25.2643838,24.0999373 23.0000431,24.0999373 C22.1872579,24.0999373 21.4092286,23.8614887 20.7432989,23.4214021 L20.720613,23.2751727 L20.9918671,22.9390497 L21.1238534,22.9177915 C21.6116011,23.232085 22.1698214,23.4195501 22.7570308,23.4604856 Z M22.7570308,21.3007195 L22.7570308,20.385629 L21.7284153,20.385629 C21.8711112,20.855586 22.2683708,21.2103958 22.7570308,21.3007195 Z M22.7570308,19.7570622 L22.7570308,18.7002022 C22.2207225,18.8001149 21.8006415,19.220402 21.7009553,19.7570622 L22.7570308,19.7570622 Z M22.7570308,18.059218 L22.7570308,16.5412084 C21.0345822,16.660805 19.6608707,18.0345734 19.5413892,19.7570622 L21.0595134,19.7570622 C21.169417,18.870719 21.8708456,18.1691364 22.7570308,18.059218 Z M23.3855977,16.5525816 L23.3855977,18.0829414 C24.207175,18.2474834 24.8366871,18.9229031 24.9402514,19.7570622 L26.4585851,19.7570622 C26.3426154,18.0861374 25.0446374,16.7362691 23.3855977,16.5525816 Z M23.3855977,18.7300748 L23.3855977,19.7570622 L24.2988332,19.7570622 C24.2084549,19.2696723 23.8543477,18.873325 23.3855977,18.7300748 Z M23.3855977,20.385629 L23.3855977,21.2690047 C23.8093141,21.1406321 24.1432327,20.8078645 24.2713647,20.385629 L23.3855977,20.385629 Z M23.3855977,23.4477108 C24.9936018,23.2696791 26.2689738,21.9940345 26.4470368,20.3856368 L24.9165836,20.3856368 C24.7623343,21.1555126 24.1565167,21.7600575 23.3855977,21.9147029 L23.3855977,23.4477108 Z"></path>
                </g>
            </g>
        </g>
    </g>
</svg>

<svg width="60" height="60" xmlns="http://www.w3.org/2000/svg" xmlns:xlink="http://www.w3.org/1999/xlink"><defs><path d="M19.19 14.187H3.808c-.531 0-.961.377-.961.843 0 .467.43.844.961.844h15.384c.531 0 .961-.377.961-.844 0-.466-.43-.843-.961-.843zM11.5 19.249H3.807c-.531 0-.961.377-.961.844 0 .466.43.845.961.845H11.5c.533 0 .963-.38.963-.845 0-.467-.43-.844-.963-.844zM21.939 0H3.06C1.373 0 0 1.09 0 2.426v22.147C0 25.91 1.373 27 3.059 27h14.952L25 21.392V2.426C25 1.089 23.627 0 21.94 0zm-4.63 25.276v-2.494c0-.465.43-.844.959-.844h3.202l-4.162 3.338zm5.768-5.027h-4.81c-1.59 0-2.882 1.135-2.882 2.533v2.53H3.06c-.616 0-1.136-.339-1.136-.74V2.427c0-.4.52-.739 1.136-.739h18.88c.616 0 1.138.338 1.138.739v17.823z" id="a"/><path d="M23 16a4 4 0 0 0-4 4c0 .918.313 1.761.833 2.436l.3-.313a3.555 3.555 0 0 1-.693-1.837h1.727c.13.843.828 1.491 1.69 1.558v1.722a3.552 3.552 0 0 1-1.787-.564l-.272.336A4 4 0 1 0 23 16zm-.143 5.416a1.426 1.426 0 0 1-1.257-1.13h1.257v1.13zm0-1.559h-1.271a1.42 1.42 0 0 1 1.271-1.272v1.272zm0-1.707a1.855 1.855 0 0 0-1.707 1.707h-1.714a3.566 3.566 0 0 1 3.421-3.421v1.714zm.429-1.707a3.567 3.567 0 0 1 3.278 3.414H24.85a1.856 1.856 0 0 0-1.564-1.69v-1.724zm0 2.159c.604.123 1.065.63 1.128 1.255h-1.128v-1.255zm0 1.684H24.4c-.114.559-.555.997-1.114 1.111v-1.111zm0 3.272V21.83a1.854 1.854 0 0 0 1.547-1.545h1.724a3.569 3.569 0 0 1-3.271 3.272z" id="b"/></defs><g fill="none" fill-rule="evenodd"><circle fill="#05DCAC" transform="matrix(-1 0 0 1 60 0)" cx="30" cy="30" r="30"/><circle fill="#05DCAC" cx="39.5" cy="35.5" r="7.5"/><g transform="translate(16 17)"><g fill-rule="nonzero" transform="matrix(1 0 0 -1 0 27)"><use fill="#FFF" fill-rule="evenodd" xlink:href="#a"/><path stroke="#05DCAC" stroke-width=".2" d="M19.19 14.287H3.808c-.479 0-.861.335-.861.743s.382.744.861.744h15.384c.479 0 .861-.336.861-.744s-.382-.743-.861-.743zM11.5 19.349H3.807c-.479 0-.861.336-.861.744s.383.745.861.745H11.5c.48 0 .863-.337.863-.745 0-.409-.382-.744-.863-.744zM21.939.1H3.06C1.424.1.1 1.15.1 2.426v22.147C.1 25.85 1.424 26.9 3.059 26.9h14.25l.639.022 6.952-5.53V2.426C24.9 1.15 23.576.1 21.94.1zm-4.73 25.176v-2.494c0-.524.477-.944 1.059-.944h3.202l.062.178-4.161 3.338-.163-.078zm5.868-4.927h-4.81c-1.537 0-2.782 1.093-2.782 2.433v2.53l-.1.1H3.06c-.664 0-1.236-.372-1.236-.84V2.427c0-.467.571-.839 1.236-.839h18.88c.665 0 1.238.372 1.238.839v17.823l-.1.1z"/></g><path d="M6.772 17.006h.635v1.718h1.136v3.417c0 .517-.216.781-.642.781h-.586l-.167-.639.55.032c.135 0 .203-.11.203-.323v-.42h-1.63v1.363H5.63v-4.21h1.142v-1.719zm-.5 3.462v.536h1.63v-.536h-1.63zm1.63-.568v-.536h-1.63v.536h1.63zm-1.896-2.648c.185.316.364.665.537 1.053l-.518.27a8.142 8.142 0 0 0-.556-1.052l.537-.271zm2.167-.071l.53.271a5.969 5.969 0 0 1-.567 1.124l-.519-.284c.235-.375.42-.743.556-1.111zM3.803 17l.617.136c-.043.18-.087.348-.136.51h1.025v.64H4.074a9.657 9.657 0 0 1-.29.67h1.42v.602h-.568v.607h.778v.62h-.778v1.26c.253-.104.506-.227.753-.382l.111.588a7.034 7.034 0 0 1-1.463.581l-.265-.581c.154-.058.234-.149.234-.265v-1.201h-.778v-.62h.778v-.607H3.71v-.453a7.516 7.516 0 0 1-.185.33L3 19.086A6.89 6.89 0 0 0 3.802 17zm6.172 1.201h-.66v-.658h1.963v.658h-.648v2.642c.234-.084.45-.168.66-.252v.672c-.543.232-1.16.452-1.864.652l-.191-.665c.259-.065.506-.136.74-.2V18.2zm1.476-1.014h3.481v.66h-1.426a5.727 5.727 0 0 1-.092.49h1.29v3.158h-.63v-2.538H12.29v2.538h-.623v-3.158h1.11c.038-.162.069-.323.093-.49h-1.42v-.66zm2.333 4.25c.481.362.883.723 1.216 1.079l-.463.484c-.278-.349-.673-.73-1.185-1.13l.432-.433zm-.938-2.19h.642v1.137c-.037.704-.223 1.273-.556 1.699-.327.387-.858.691-1.599.904l-.352-.575c.717-.206 1.204-.458 1.457-.755.241-.323.377-.75.408-1.273v-1.136z" fill="#FFF"/><circle stroke="#FFF" stroke-width="1.5" fill="#05DCAC" cx="23" cy="20" r="6"/><g fill-rule="nonzero"><use fill="#FFF" fill-rule="evenodd" xlink:href="#b"/><path stroke="#FFF" stroke-width=".2" d="M22.757 23.46v-1.526a1.952 1.952 0 0 1-1.674-1.548H19.55c.069.61.299 1.186.663 1.678l-.008.129-.3.313-.152-.009A4.077 4.077 0 0 1 18.9 20a4.1 4.1 0 1 1 1.843 3.421l-.022-.146.27-.336.133-.021a3.45 3.45 0 0 0 1.633.542zm0-2.16v-.914h-1.029c.143.47.54.824 1.029.915zm0-1.543V18.7c-.536.1-.956.52-1.056 1.057h1.056zm0-1.698v-1.518a3.466 3.466 0 0 0-3.216 3.216h1.519a1.956 1.956 0 0 1 1.697-1.698zm.629-1.506v1.53c.821.164 1.45.84 1.554 1.674h1.519a3.468 3.468 0 0 0-3.073-3.204zm0 2.177v1.027h.913a1.327 1.327 0 0 0-.913-1.027zm0 1.656v.883a1.33 1.33 0 0 0 .885-.883h-.885zm0 3.062a3.47 3.47 0 0 0 3.061-3.062h-1.53a1.955 1.955 0 0 1-1.531 1.529v1.533z"/></g></g></g></svg>
